src/assets/metronic/worbby/global/img/icon-pets.svg

<?xml version="1.0" encoding="UTF-8"?>
<svg width="65px" height="65px" viewBox="0 0 65 65" version="1.1" xmlns="http://www.w3.org/2000/svg" xmlns:xlink="http://www.w3.org/1999/xlink">
    <!-- Generator: Sketch 41.2 (35397) - http://www.bohemiancoding.com/sketch -->
    <title>icon-pets</title>
    <desc>Created with Sketch.</desc>
    <defs>
        <linearGradient x1="0%" y1="49.9979293%" x2="99.9874969%" y2="49.9979293%" id="linearGradient-1">
            <stop stop-color="#FFB247" offset="0%"></stop>
            <stop stop-color="#FFCB33" offset="100%"></stop>
        </linearGradient>
    </defs>
    <g id="Worbby-Needor" stroke="none" stroke-width="1" fill="none" fill-rule="evenodd">
        <g id="Categories-List" transform="translate(-50.000000, -462.000000)">
            <g id="icon-pets" transform="translate(50.000000, 462.000000)">
                <g>
                    <path d="M27.0833333,54.1666667 C42.0409167,54.1666667 54.1666667,42.0409167 54.1666667,27.0833333 C54.1666667,12.12575 42.0409167,0 27.0833333,0 C12.12575,0 0,12.12575 0,27.0833333 C0,42.0409167 12.12575,54.1666667 27.0833333,54.1666667" id="Fill-1" fill="url(#linearGradient-1)"></path>
                    <path d="M46.9534767,18.755046 C46.1988633,19.2257661 45.9640251,20.2392233 46.4472699,20.992793 C46.8595414,21.6409464 47.3417425,22.6773656 47.3417425,23.9141801 C47.3417425,25.0330536 46.8355357,25.4922928 45.5987212,25.4922928 C43.3849799,25.4922928 42.9487027,23.4309353 42.8777294,23.0301448 C42.7483075,22.1471532 41.9352455,21.5230055 41.0397292,21.6524274 C40.1567376,21.7818493 39.5325898,22.6063923 39.6620118,23.4904276 C39.9218994,25.3033785 41.500012,28.7434971 45.5987212,28.7434971 C49.285159,28.7434971 50.5929468,26.1404462 50.5929468,23.9256611 C50.5929468,21.9112713 49.8393771,20.286191 49.2027047,19.2852584 C48.7194599,18.5076831 47.7185273,18.2718012 46.9534767,18.755046 M48.567076,60.8171754 L46.2938423,60.8171754 C45.4807803,58.2370865 43.5144018,51.3589368 42.8777294,43.4662861 C42.8067561,42.5718135 42.0302245,41.9121791 41.1347082,41.9821087 C40.2391919,42.053082 39.5795575,42.8421384 39.6505308,43.7261737 C40.4865547,54.1498582 43.4663905,62.63117 43.5968561,62.9839491 C43.8202133,63.6321025 44.4328801,64.0683797 45.1269574,64.0683797 L48.578557,64.0683797 C49.4740733,64.0683797 50.204681,63.337772 50.204681,62.4422557 C50.204681,61.5477831 49.4625923,60.8171754 48.567076,60.8171754 M60.6283655,26.0225052 C60.5219055,26.1634081 60.4519759,26.3283167 60.4050083,26.50575 C60.4050083,26.50575 60.322554,26.7875559 59.8153035,28.7904647 C59.6514386,29.4386181 59.403032,29.8863763 57.6600108,29.8863763 C56.1173848,29.8863763 54.6801751,29.9448249 53.160511,30.0032735 C51.8412422,30.0502411 50.4165572,30.1097335 48.7559903,30.1326954 C47.9658902,30.1452201 47.3062558,30.7224002 47.1768339,31.4989318 L46.7290757,34.2199237 C45.5517536,34.302378 43.3369685,34.1259884 40.569009,32.3359995 C36.4817808,29.697462 36.3878455,27.3887416 36.3763645,27.1413787 C36.7291437,25.7396557 37.5651676,23.5133896 38.3782296,22.7713009 C38.6485545,22.523938 38.8259878,22.1941208 38.8854801,21.828817 C38.9199231,21.6169407 39.8154394,16.5402609 46.2468747,16.5402609 C49.6744685,16.5402609 51.735826,18.7780079 53.384912,20.5690405 C53.6677615,20.8748521 53.9380864,21.1691826 54.1854493,21.4290702 C55.8815029,23.1606105 57.3061879,23.4194543 58.8258519,23.7137849 C59.1327072,23.7732772 59.4510434,23.8317258 59.8038225,23.9141801 C60.5573922,24.0905697 60.7348255,24.1970297 60.7692684,24.2325163 C60.7692684,24.2325163 60.8287608,24.3379326 60.8287608,24.6677498 C60.8287608,25.5747471 60.6168845,26.0339862 60.6283655,26.0225052 C60.6168845,26.0339862 60.6168845,26.0339862 60.6283655,26.0225052 M60.5344302,20.7454301 C60.1451207,20.6514948 59.7808606,20.5920025 59.4385187,20.5210292 C58.1432556,20.27471 57.4951022,20.156769 56.5181753,19.1547928 C56.2822934,18.9199546 56.0464115,18.648586 55.7875676,18.3657364 C53.9266054,16.3409094 51.1106345,13.2890566 46.2583556,13.2890566 C39.3791622,13.2890566 36.4943055,17.919022 35.7981407,20.7809168 C34.4913966,22.2765751 33.6898156,24.7272421 33.3610421,25.8690776 C23.395553,32.748271 17.058053,49.5804289 17.058053,56.3176757 C17.058053,57.5544901 17.2584483,58.6973693 17.6007902,59.7097829 C16.9996044,59.9811515 15.9871909,60.286963 14.3495859,60.286963 C12.571078,60.286963 8.43688207,59.473901 8.43688207,52.0060465 C8.43688207,48.8853078 9.08399175,46.1987589 10.3688176,44.0319852 C10.8280567,43.2544099 10.5681691,42.2649583 9.7916375,41.8057191 C9.02554314,41.34648 8.02461058,41.6063676 7.56537145,42.3828992 C5.9872588,45.0684044 5.18567777,48.3081277 5.18567777,52.0185712 C5.18567777,60.5103202 9.92105944,63.5381673 14.3495859,63.5381673 C16.6697872,63.5381673 18.2364189,63.0549225 19.2613571,62.536191 C20.2038411,63.5026806 21.3822069,64.0683797 22.700432,64.0683797 L38.0244068,64.0683797 C38.9199231,64.0683797 39.6505308,63.337772 39.6505308,62.4422557 C39.6505308,61.5477831 38.9199231,60.8171754 38.0244068,60.8171754 L22.700432,60.8171754 C22.1117709,60.8171754 21.5116289,60.3579363 21.051346,59.5448743 C21.028384,59.4853819 21.0043784,59.4269333 20.9688917,59.3684847 C20.5691449,58.5909094 20.3092573,57.5544901 20.3092573,56.3291566 C20.3092573,50.5573558 25.869182,36.3052868 33.7138213,29.685981 C34.3849367,31.228607 35.8106654,33.1605425 38.8019821,35.0799533 C41.8413102,37.0358945 44.4913287,37.482609 46.2813176,37.482609 L46.4107395,37.482609 C45.9995118,44.9149768 46.1518957,49.8747594 49.380138,59.3329981 C49.6034952,59.9926324 50.216162,60.4278659 50.922764,60.4278659 L54.1854493,60.4278659 C55.0809656,60.4278659 55.8105295,59.6983019 55.8105295,58.8027856 C55.8105295,57.9072693 55.0809656,57.1777053 54.1854493,57.1777053 L52.0771242,57.1777053 C49.1557371,48.2486354 49.262197,43.820109 49.7569228,35.810561 L50.1566696,33.3609378 C51.2880678,33.3369321 52.3130061,33.2899645 53.278452,33.2544778 C54.7741103,33.1949855 56.1518277,33.1365368 57.6485298,33.1365368 C60.5699169,33.1365368 62.3484248,31.9477337 62.9485669,29.591002 C63.2669031,28.3656685 63.4088497,27.8010131 63.4672983,27.5536502 C63.7021365,27.0829301 64.0674404,26.1279215 64.0674404,24.6562688 C64.0799651,21.5584921 61.5938114,20.992793 60.5344302,20.7454301 M30.6160446,44.9034958 C27.0235421,44.9034958 23.7723378,47.0358266 22.3236471,50.3225176 C21.9698243,51.1470606 22.3361718,52.1010255 23.1607148,52.4652856 C23.9842141,52.8191085 24.9392227,52.4538046 25.3034829,51.6292616 C26.2230048,49.5209365 28.3073243,48.1547001 30.6160446,48.1547001 C33.8077566,48.1547001 36.4108075,50.757751 36.4108075,53.949463 C36.4108075,54.8449793 37.1414152,55.575587 38.0369315,55.575587 C38.9314041,55.575587 39.6620118,54.8449793 39.6620118,53.949463 C39.6505308,48.9562812 35.5987892,44.9034958 30.6160446,44.9034958" id="Fill-3" fill="#1E2225"></path>
                </g>
            </g>
        </g>
    </g>
</svg>

<svg xmlns="http://www.w3.org/2000/svg" width="65" height="65"><defs><linearGradient id="a" x1="0%" x2="99.9875%" y1="49.9979%" y2="49.9979%"><stop stop-color="#FFB247" offset="0%"/><stop stop-color="#FFCB33" offset="100%"/></linearGradient></defs><g fill="none" fill-rule="evenodd"><path fill="url(#a)" d="M27.0833 54.1667c14.9576 0 27.0834-12.1258 27.0834-27.0834C54.1667 12.1257 42.041 0 27.0833 0 12.1257 0 0 12.1258 0 27.0833 0 42.041 12.1258 54.1667 27.0833 54.1667"/><path fill="#1E2225" d="M46.9535 18.755c-.7546.4708-.9895 1.4842-.5062 2.2378.4122.648.8944 1.6846.8944 2.9214 0 1.119-.5062 1.578-1.743 1.578-2.2137 0-2.65-2.0613-2.721-2.462-.1294-.883-.9425-1.5072-1.838-1.3778-.883.1294-1.507.954-1.3777 1.838.26 1.813 1.838 5.253 5.9367 5.253 3.6865 0 4.9942-2.603 4.9942-4.8177 0-2.0144-.7536-3.6395-1.3903-4.6404-.4832-.7776-1.4842-1.0135-2.2492-.5303m1.6136 42.0622H46.294c-.813-2.58-2.7794-9.4583-3.416-17.351-.071-.8944-.8476-1.554-1.743-1.484-.8956.071-1.5552.86-1.4843 1.744.836 10.4237 3.816 18.905 3.9464 19.2577.2232.648.836 1.0844 1.53 1.0844h3.4516c.8955 0 1.626-.7306 1.626-1.626 0-.8946-.742-1.6252-1.6375-1.6252m12.0614-34.7947c-.1065.141-.1764.3058-.2234.4832 0 0-.0824.282-.5897 2.2848-.164.648-.4123 1.096-2.1553 1.096-1.5426 0-2.9798.0583-4.4995.1168-1.3193.047-2.744.1064-4.4045.1294-.79.0125-1.4497.5897-1.5792 1.3662l-.4477 2.721c-1.1772.0824-3.392-.094-6.16-1.884-4.0872-2.6385-4.1812-4.9473-4.1926-5.1946.3527-1.4017 1.1888-3.628 2.0018-4.37.2704-.2475.4478-.5773.5073-.9426.0344-.212.93-5.2885 7.3614-5.2885 3.4275 0 5.4888 2.2377 7.138 4.0287.2828.306.553.6002.8004.86 1.696 1.7316 3.1208 1.9905 4.6405 2.2848.3067.0595.625.118.9778.2004.7536.1764.931.2828.9655.3183 0 0 .0595.1054.0595.4352 0 .907-.212 1.3663-.2004 1.3548-.0115.0115-.0115.0115 0 0m-.094-5.277c-.3893-.094-.7535-.1535-1.096-.2245-1.295-.2463-1.9433-.3642-2.9202-1.3662-.236-.2348-.4718-.5062-.7306-.789-1.861-2.025-4.677-5.0767-9.5292-5.0767-6.8792 0-9.764 4.63-10.4603 7.492-1.3066 1.4956-2.1082 3.9462-2.437 5.088-9.9654 6.8793-16.303 23.7114-16.303 30.4487 0 1.2368.2004 2.3797.5428 3.392-.6012.2715-1.6136.5773-3.2512.5773-1.7785 0-5.9127-.813-5.9127-8.281 0-3.1207.647-5.8072 1.9318-7.974.4593-.7776.1994-1.767-.5772-2.2263-.766-.4592-1.767-.1993-2.2262.5772-1.578 2.6854-2.3797 5.925-2.3797 9.6356 0 8.4917 4.7354 11.5196 9.164 11.5196 2.32 0 3.8867-.4833 4.9117-1.002.9424.9665 2.1208 1.5322 3.439 1.5322h15.324c.8955 0 1.626-.7306 1.626-1.626 0-.8946-.7305-1.6252-1.626-1.6252h-15.324c-.5886 0-1.1888-.4593-1.649-1.2723-.023-.0596-.047-.118-.0825-.1765-.4-.7776-.6597-1.814-.6597-3.0393 0-5.7718 5.56-20.024 13.4045-26.6432.671 1.5426 2.097 3.4745 5.0882 5.394 3.0393 1.956 5.6893 2.4026 7.4793 2.4026h.1294c-.4112 7.4324-.2588 12.3922 2.9694 21.8504.2235.6596.8362 1.095 1.5428 1.095h3.2626c.8956 0 1.625-.7297 1.625-1.6252s-.7294-1.625-1.625-1.625H52.077c-2.9213-8.9292-2.8148-13.3577-2.32-21.3672l.3997-2.4497c1.1314-.024 2.1563-.071 3.1218-.1065 1.4956-.0595 2.8733-.118 4.37-.118 2.9214 0 4.7-1.1888 5.3-3.5455.3184-1.2253.4603-1.79.5188-2.0373.2348-.4708.6-1.4258.6-2.8974.0127-3.0978-2.4735-3.6635-3.533-3.911M30.616 44.9036c-3.5925 0-6.8437 2.1323-8.2924 5.419-.3538.8246.0126 1.7785.837 2.1428.8236.3538 1.7786-.0115 2.143-.836.9194-2.1084 3.0037-3.4746 5.3124-3.4746 3.1918 0 5.7948 2.603 5.7948 5.7948 0 .8955.7306 1.626 1.626 1.626.8946 0 1.6252-.7305 1.6252-1.626-.0115-4.9932-4.0632-9.046-9.046-9.046"/></g></svg>
